dist/img/icons/settings.svg

<svg width="20" height="20" viewBox="0 0 20 20" fill="none" xmlns="http://www.w3.org/2000/svg">
<path d="M17.4846 11.0553C17.4846 10.7537 17.5866 10.4522 17.5866 10.0502C17.5866 9.64822 17.5866 9.34672 17.4846 9.04521L19.6269 7.33667C19.831 7.13566 19.831 6.93466 19.729 6.73366L17.6887 3.21607C17.5866 3.11557 17.3827 3.01507 17.0766 3.11557L14.5262 4.1206C14.0161 3.71859 13.404 3.41708 12.7919 3.11557L12.3839 0.502512C12.4859 0.201005 12.1798 0 11.9758 0H7.89522C7.69115 0 7.38514 0.201005 7.38514 0.402009L6.97708 3.11557C6.36499 3.31658 5.85492 3.71859 5.24283 4.1206L2.79447 3.11557C2.48842 3.01507 2.28439 3.11557 2.08032 3.31658L0.040021 6.83416C-0.061994 6.93466 0.040021 7.23617 0.244051 7.43717L2.38637 9.04521C2.38637 9.34672 2.28435 9.64822 2.28435 10.0502C2.28435 10.4522 2.28435 10.7537 2.38637 11.0553L0.244051 12.7638C0.040021 12.9648 0.040021 13.1658 0.142036 13.3668L2.18234 16.8844C2.28435 16.9849 2.48834 17.0854 2.79443 16.9849L5.3448 15.9799C5.85488 16.3819 6.46697 16.6834 7.07906 16.9849L7.48712 19.598C7.48712 19.799 7.69115 20 7.99719 20H12.0778C12.2819 20 12.5879 19.799 12.5879 19.598L12.9959 16.9849C13.608 16.6834 14.2201 16.3819 14.7302 15.9799L17.2806 16.9849C17.4846 17.0854 17.7906 16.9849 17.8927 16.7839L19.933 13.2663C20.035 13.0653 20.035 12.7638 19.8309 12.6633L17.4846 11.0553ZM9.93552 13.5678C7.99723 13.5678 6.36499 11.9598 6.36499 10.0502C6.36499 8.14069 7.99723 6.53265 9.93552 6.53265C11.8738 6.53265 13.506 8.14069 13.506 10.0502C13.506 11.9598 11.8738 13.5678 9.93552 13.5678Z" fill="white"/>
</svg>

<svg width="20" height="20" viewBox="0 0 20 20" fill="none" xmlns="http://www.w3.org/2000/svg"><path d="M17.485 11.055c0-.301.102-.603.102-1.005 0-.402 0-.703-.102-1.005l2.142-1.708c.204-.201.204-.402.102-.603l-2.04-3.518c-.102-.1-.306-.2-.612-.1l-2.55 1.005c-.51-.402-1.123-.704-1.735-1.005L12.384.503C12.486.2 12.18 0 11.976 0h-4.08c-.205 0-.51.201-.51.402l-.409 2.714c-.612.2-1.122.603-1.734 1.005L2.794 3.116c-.306-.1-.51 0-.714.2L.04 6.835c-.102.1 0 .402.204.603l2.142 1.608c0 .302-.102.603-.102 1.005 0 .402 0 .704.102 1.005L.244 12.764c-.204.2-.204.402-.102.603l2.04 3.517c.102.1.306.201.612.1l2.55-1.004c.51.402 1.123.703 1.735 1.005l.408 2.613c0 .201.204.402.51.402h4.08c.205 0 .51-.201.51-.402l.409-2.613c.612-.302 1.224-.603 1.734-1.005l2.55 1.005c.205.1.51 0 .613-.201l2.04-3.518c.102-.2.102-.502-.102-.603l-2.346-1.608zm-7.55 2.513c-1.938 0-3.57-1.608-3.57-3.518 0-1.91 1.632-3.517 3.57-3.517 1.939 0 3.571 1.608 3.571 3.517 0 1.91-1.632 3.518-3.57 3.518z" fill="#fff"/></svg>
